X:2110
T:Yearree dhooys y lheiney 
C:Tom Kermode, Bradda
O:Isle of Man
C:Traditional 
Z:Clague collection
B:Kiaull Vannin #110 
M:4/4 
L:1/4
Q:80 
K:G 
d/d/|g a gf|(ef) ag|(ba) (ge)|g3 e|d/d/B B B|c A AB| 
G/G/ G G G|g3 e|d/d/ B B B|c A A B|G/G/ E G G|G3|| 

